X:5677
T:Round
O:england
C:Luigi Cherubini
M:C
L:1/8
Q:240
K:Bb
"1"f2f2|f4"2"d2d2|d4"3"B2B2|B4f2d2|B2F2D2F2|B2d2B2F2|
D2 z2 Bcde|fgfg fedc|B2B2 dc Bc|d2B2F2GA|B2 z2:|]
